src/svg/16/fire_verified_16.svg

<?xml version="1.0" encoding="UTF-8"?>
<svg width="16px" height="16px" viewBox="0 0 16 16" version="1.1" xmlns="http://www.w3.org/2000/svg" xmlns:xlink="http://www.w3.org/1999/xlink">
    <!-- Generator: Sketch 50.2 (55047) - http://www.bohemiancoding.com/sketch -->
    <title>fire_verified_16</title>
    <desc>Created with Sketch.</desc>
    <defs></defs>
    <g id="Page-2" stroke="none" stroke-width="1" fill="none" fill-rule="evenodd">
        <g id="fire_verified_16">
            <rect id="Rectangle-5" x="0" y="0" width="16" height="16"></rect>
            <path d="M7.45670576,0.0491191453 C7.51514617,0.00578723569 7.58956004,-0.00994598395 7.66053837,0.00602310064 C7.79527963,0.0363379053 7.87993399,0.170142276 7.84961918,0.304883527 L7.84955177,0.30486836 C7.8141433,0.462249592 7.76981213,0.582052729 7.71655826,0.664277772 C5.82871798,3.579141 6.65784262,5.33124732 7.93083746,5.51953039 C9.2474996,5.7142721 10.2106584,4.83216737 10.0045738,2.92819881 C9.96908823,2.60035551 9.93942176,2.32406296 9.91557442,2.09932116 C9.90994982,2.04631381 9.92291174,1.99299857 9.95224428,1.94848996 C10.0221428,1.84242735 10.1647875,1.81311057 10.2708516,1.88300673 C10.6987542,2.16500767 11.2108201,2.67779927 11.8070494,3.42138153 C13.9289521,6.06769422 14.0119431,8.28270421 14,9.23539075 C13.9571805,12.651039 11.4285714,15 8,15 C4.57142857,15 2,12.6514555 2,9.23539075 C2.01518627,6.64914309 3.32165527,3.00869327 6.92843761,0.435167426 C7.06315593,0.339042665 7.23924532,0.210359904 7.45670576,0.0491191453 Z M5.49497475,8.50502525 C5.22160774,8.23165825 4.77839226,8.23165825 4.50502525,8.50502525 C4.23165825,8.77839226 4.23165825,9.22160774 4.50502525,9.49497475 L6.50502525,11.4949747 C6.77839226,11.7683418 7.22160774,11.7683418 7.49497475,11.4949747 L11.4949747,7.49497475 C11.7683418,7.22160774 11.7683418,6.77839226 11.4949747,6.50502525 C11.2216077,6.23165825 10.7783923,6.23165825 10.5050253,6.50502525 L7,10.0100505 L5.49497475,8.50502525 Z" id="Mask" fill="currentColor" fill-rule="nonzero"></path>
        </g>
    </g>
</svg>

<svg xmlns="http://www.w3.org/2000/svg" width="16" height="16" fill="none" viewBox="0 0 16 16"><path fill="currentColor" d="m7.607 0 .0535.006a.25.25 0 0 1 .1891.2989l-.0283.111c-.0299.1039-.0648.1867-.1047.2484-1.8879 2.9148-1.0588 4.667.2142 4.8552 1.3167.1948 2.2799-.6873 2.0738-2.5913a394.1881 394.1881 0 0 1-.089-.8289.23.23 0 0 1 .3553-.2163l.1457.1025c.397.2963.8605.7749 1.3904 1.4359 1.9851 2.4756 2.1857 4.5737 2.1936 5.614l-.0006.2C13.9572 12.651 11.4286 15 8 15s-6-2.3486-6-5.7646C2.0152 6.649 3.3217 3.0087 6.9284.4352c.1348-.0962.3109-.2249.5283-.3861a.25.25 0 0 1 .2038-.043L7.607-.0002Zm2.898 6.505L7 10.01 5.495 8.505a.7.7 0 1 0-.99.99l2 2a.7001.7001 0 0 0 .99 0l4-4a.7001.7001 0 0 0-.99-.99Z"/></svg>
